<?xml version="1.0" encoding="UTF-8"?>
<map version="1.10" tiledversion="1.10.2" orientation="orthogonal" renderorder="left-up" width="24" height="134" tilewidth="16" tileheight="16" infinite="0" nextlayerid="2" nextobjectid="1">
 <tileset firstgid="1" source="map_texture.tsx"/>
 <layer id="1" name="Tile Layer 1" width="24" height="134">
  <data encoding="csv">
51,51,51,51,51,51,51,51,51,51,51,51,51,51,51,51,51,51,51,51,51,51,51,51,
51,51,51,51,51,51,51,51,51,51,51,97,97,97,51,51,51,51,51,51,51,51,51,51,
51,51,51,51,51,51,51,51,51,51,51,51,51,51,51,51,51,51,51,51,51,51,51,51,
63,63,63,63,63,63,63,63,63,63,63,63,63,63,63,63,63,63,63,63,63,63,63,63,
43,43,43,43,43,43,43,43,43,43,43,43,43,43,43,43,43,43,43,43,43,43,43,43,
43,43,43,43,43,43,43,43,43,43,43,43,43,43,43,43,43,43,43,43,43,43,43,43,
43,43,43,43,43,43,43,43,43,43,65,43,43,43,43,43,43,43,43,43,43,43,43,43,
43,43,43,43,43,43,43,43,43,43,43,43,43,43,43,43,43,43,43,43,43,43,43,43,
43,43,43,43,43,43,43,43,43,43,43,43,43,43,43,43,43,43,43,43,43,43,43,43,
43,43,43,43,43,43,43,43,43,43,43,43,43,43,43,43,43,43,43,43,43,43,43,43,
43,43,43,43,43,43,43,43,43,43,43,43,43,43,43,43,43,43,43,43,43,43,43,43,
43,43,43,43,43,43,43,43,43,43,43,43,43,43,43,43,43,43,43,43,43,43,43,43,
43,43,43,43,43,43,43,43,43,43,43,43,43,43,43,43,43,43,43,43,43,43,43,43,
43,43,43,43,43,43,43,43,43,43,43,43,43,43,43,65,43,43,43,43,43,43,43,43,
43,43,43,43,43,43,43,43,43,43,43,43,43,43,43,43,43,43,43,43,43,43,43,43,
43,43,43,38,39,40,43,43,43,43,43,43,43,43,43,43,43,43,43,43,43,43,43,43,
43,43,43,50,51,52,43,43,43,43,43,43,43,43,43,43,43,43,43,43,43,43,43,43,
43,43,43,62,63,64,43,43,43,43,43,43,43,43,43,43,43,43,43,43,43,43,43,43,
43,43,43,43,43,43,43,43,43,66,43,43,43,43,43,43,43,43,43,43,43,43,43,43,
43,43,43,43,43,43,43,43,43,43,43,43,43,43,43,43,43,43,43,43,43,66,43,43,
43,43,43,43,43,43,43,43,43,43,43,43,43,43,43,43,43,43,43,43,43,43,43,43,
43,43,43,43,43,43,43,43,43,43,43,43,43,43,43,43,43,43,43,43,43,43,43,43,
43,43,43,43,43,43,43,43,43,43,43,43,43,43,65,43,43,43,43,43,43,43,43,43,
43,43,43,43,43,43,43,43,43,43,43,43,43,43,43,43,43,43,43,43,43,43,43,43,
43,43,43,43,43,43,43,43,43,43,43,43,43,43,43,43,43,43,43,43,44,45,45,45,
43,43,43,43,43,43,43,43,43,43,43,43,43,43,43,43,43,44,45,45,60,57,57,57,
43,43,43,43,43,43,44,45,46,43,43,43,72,43,43,43,43,56,57,57,57,57,57,57,
43,43,43,43,43,43,56,57,58,43,43,43,43,43,44,45,45,60,57,57,57,57,57,57,
43,43,43,72,43,43,56,57,59,45,45,45,45,46,56,57,57,57,57,57,57,57,57,57,
43,43,43,43,43,43,68,48,57,57,57,57,57,58,56,57,57,108,81,82,57,57,57,57,
43,43,43,43,43,43,43,56,57,103,57,57,57,59,60,57,57,57,57,83,120,57,57,57,
43,43,43,43,43,43,43,68,48,57,57,57,57,57,57,57,57,57,57,118,57,57,57,57,
43,43,43,43,43,43,43,43,56,57,57,57,91,91,91,57,57,57,57,57,57,57,57,57,
43,43,43,43,43,43,43,43,68,48,57,57,116,116,116,57,57,57,57,47,69,69,69,69,
43,43,43,72,43,43,43,43,43,56,57,57,116,116,116,57,57,118,57,58,43,43,43,43,
43,43,43,43,43,43,43,43,43,56,57,57,57,57,57,57,57,57,57,58,43,43,43,43,
43,43,43,43,43,43,43,43,43,56,57,115,57,57,57,57,57,57,57,58,43,43,43,43,
43,43,43,43,43,43,43,43,43,56,57,57,57,57,55,57,57,47,69,70,43,43,43,43,
39,39,39,39,40,43,43,43,43,68,69,48,57,57,57,57,57,58,43,43,43,43,43,43,
51,51,51,51,52,43,43,43,43,43,43,56,57,118,118,57,57,58,44,45,46,43,43,43,
51,51,51,51,52,43,43,43,43,43,43,56,57,57,57,57,57,59,60,57,58,43,43,43,
51,51,51,51,53,40,43,43,43,43,43,56,57,57,57,57,79,79,57,57,58,43,43,43,
51,51,51,51,51,52,72,43,43,43,43,68,69,69,69,48,57,57,55,57,59,46,43,43,
51,51,51,51,51,52,43,43,43,43,43,43,43,43,43,56,57,57,57,57,57,58,43,43,
51,51,51,51,51,52,43,43,43,43,43,43,43,43,43,56,57,116,116,57,47,70,43,43,
51,73,73,51,51,52,43,43,43,43,43,43,43,43,43,56,57,116,116,57,58,43,43,43,
51,73,73,51,51,52,43,43,43,43,43,72,43,43,43,56,57,57,57,57,58,43,43,43,
51,51,88,51,51,52,43,43,43,43,43,43,43,43,43,56,57,57,57,57,58,43,43,43,
51,49,88,51,51,52,43,43,43,66,43,43,43,43,43,68,69,69,69,69,70,43,43,43,
51,51,88,51,51,52,43,43,43,43,43,43,43,71,43,43,43,43,43,43,43,43,43,43,
51,51,88,51,51,53,39,40,43,43,43,66,43,43,43,43,43,43,43,43,43,43,43,43,
51,51,88,51,51,37,37,52,43,43,43,43,43,43,43,43,43,43,43,43,43,43,43,43,
51,51,88,112,51,37,37,53,39,40,43,43,43,43,43,43,43,43,43,43,43,43,43,43,
75,75,78,51,51,37,51,51,51,52,43,43,43,43,43,43,43,43,43,43,43,43,43,43,
51,51,98,99,99,99,99,89,76,52,43,43,43,43,43,43,43,43,43,43,43,43,43,43,
37,37,61,51,110,110,51,88,86,53,39,40,43,43,43,43,43,43,43,43,43,43,43,43,
37,37,51,51,110,110,51,85,85,51,51,52,43,43,43,43,43,43,43,43,43,43,43,43,
37,37,37,51,51,51,51,86,86,51,51,52,43,43,43,43,43,43,43,43,43,43,43,43,
37,37,37,51,51,49,51,85,85,51,51,52,43,43,43,43,43,43,43,43,43,43,43,43,
37,37,49,51,51,51,51,88,88,51,51,52,43,43,43,43,43,43,43,43,43,43,43,43,
51,51,51,74,75,75,75,90,100,51,51,52,43,43,43,43,43,43,43,43,43,43,43,43,
99,89,99,87,114,51,51,51,51,112,51,52,43,43,43,43,43,43,43,43,43,43,43,43,
51,86,51,98,76,51,61,51,51,51,51,52,43,43,43,43,43,43,43,43,43,43,43,43,
51,73,73,51,88,51,51,51,51,51,51,52,43,43,43,43,43,43,43,43,43,43,43,43,
51,51,51,51,88,51,51,37,37,37,41,64,43,43,43,43,43,43,43,43,43,43,43,43,
51,51,51,51,88,51,37,37,37,51,52,43,43,43,65,43,43,43,43,43,43,43,43,38,
51,51,51,110,110,51,41,63,63,63,64,43,43,43,43,43,43,43,38,39,39,39,39,54,
49,49,51,110,110,51,52,43,43,43,43,43,43,43,43,43,43,38,54,51,51,51,51,51,
49,49,51,110,110,51,52,43,43,43,43,43,43,43,43,43,38,54,51,51,51,61,51,51,
51,51,51,51,51,51,52,43,71,43,43,43,43,43,43,43,50,51,51,51,51,51,51,51,
51,51,51,51,51,51,52,43,43,43,43,43,43,43,43,38,54,51,51,51,51,51,51,51,
51,51,51,110,110,51,52,43,43,43,43,43,43,38,39,54,51,51,61,61,51,112,51,51,
51,51,51,110,110,110,53,39,40,43,43,43,38,54,51,61,51,61,61,51,51,51,49,51,
37,37,37,51,51,51,51,51,52,43,43,43,50,51,51,51,51,51,51,51,51,51,51,51,
61,61,37,37,51,51,51,51,52,43,43,43,62,63,42,51,51,51,51,51,51,51,51,51,
61,49,49,37,51,51,41,63,64,43,43,43,43,43,62,63,63,63,42,51,51,51,51,51,
61,61,49,49,51,51,52,43,43,43,43,43,43,43,43,43,43,43,50,51,51,61,51,51,
51,51,51,51,51,51,52,43,43,43,43,43,43,43,43,43,43,43,62,63,42,51,51,51,
51,51,51,51,51,51,52,43,43,43,43,43,43,43,43,43,43,43,43,43,50,51,51,51,
51,51,51,51,51,51,52,43,43,43,43,43,43,43,43,43,43,43,43,43,62,63,63,42,
51,51,51,41,63,63,64,43,43,43,43,43,43,43,43,43,43,43,43,43,43,43,43,62,
63,63,63,64,43,43,43,43,43,43,43,43,43,43,43,43,43,43,43,43,43,43,43,43,
43,43,43,43,43,43,43,43,43,43,43,43,43,43,43,43,43,43,43,43,43,43,43,43,
43,43,43,43,43,43,65,43,43,43,43,43,43,43,43,43,66,43,43,43,43,43,43,43,
43,43,43,43,43,43,43,43,43,43,43,43,43,43,43,43,43,43,43,43,43,43,43,43,
43,43,43,43,43,43,43,43,43,43,43,43,43,43,43,43,43,43,43,43,43,43,43,43,
43,43,43,43,43,43,43,43,43,43,43,43,43,43,43,43,43,43,43,43,43,43,43,43,
43,43,43,43,43,43,43,43,43,43,43,43,38,39,40,43,43,43,43,43,43,43,43,43,
43,43,43,43,43,43,43,43,43,43,43,43,50,51,52,43,43,43,43,43,43,43,43,43,
43,43,43,43,43,43,43,43,43,43,43,43,62,63,64,43,44,45,45,46,43,43,43,43,
43,43,43,43,65,43,43,43,43,43,43,43,43,43,43,43,56,57,57,59,45,45,45,45,
43,43,43,43,43,43,43,43,43,43,43,43,43,43,43,44,60,57,57,57,57,57,57,57,
43,43,43,43,43,43,43,43,43,43,43,43,43,43,43,56,57,116,116,116,57,57,103,57,
43,43,43,43,43,43,43,43,43,43,43,43,43,43,44,60,57,116,116,116,57,57,57,57,
43,43,43,43,43,43,43,43,43,43,43,43,43,43,56,57,57,57,57,57,118,57,57,57,
43,43,43,43,43,43,43,43,43,43,43,43,43,44,60,57,57,57,57,57,57,57,55,57,
43,43,43,43,43,43,43,43,43,43,43,43,43,56,57,57,57,57,57,116,116,57,57,57,
43,43,43,43,43,43,43,43,43,43,43,43,44,60,57,57,57,57,57,116,116,57,55,57,
43,43,43,43,43,43,43,43,43,43,43,44,60,57,57,79,79,79,57,116,116,57,57,57,
43,43,43,43,43,43,43,43,43,43,43,68,69,48,57,57,57,57,57,57,57,57,57,57,
43,43,43,43,43,43,43,43,43,43,43,43,43,68,48,57,57,57,57,57,57,91,91,91,
43,43,43,43,43,38,39,40,43,43,43,43,43,43,68,48,57,57,57,57,57,57,57,57,
43,38,39,39,39,54,51,52,43,43,43,43,43,43,43,68,69,69,69,69,69,48,47,69,
43,50,51,51,51,51,51,52,43,43,43,43,43,43,43,43,43,43,43,43,43,68,70,43,
43,50,51,51,51,51,51,52,43,43,43,43,66,43,43,43,43,43,43,43,43,43,43,43,
43,50,51,51,51,51,51,53,40,43,43,43,43,43,43,43,43,43,43,43,43,43,72,43,
38,54,51,51,51,49,49,49,53,39,39,39,40,43,43,43,43,43,43,43,43,43,43,43,
54,51,51,51,49,49,49,51,51,51,51,51,52,43,43,43,43,43,43,43,43,43,43,43,
51,51,51,49,49,49,51,51,51,110,110,110,53,40,43,43,44,45,46,43,43,43,43,43,
51,51,49,49,49,49,49,51,51,110,110,110,51,52,43,43,56,91,58,43,43,43,43,43,
51,51,51,51,51,51,51,51,51,51,51,51,51,52,43,43,68,69,70,43,43,43,43,43,
51,51,51,51,51,51,51,51,51,51,51,51,51,52,43,43,43,43,43,43,71,43,43,43,
51,51,49,51,51,51,51,49,51,73,51,51,51,52,43,43,43,43,43,43,43,43,43,43,
51,51,51,49,51,51,101,51,51,51,51,51,51,52,43,43,43,43,43,43,43,43,43,43,
51,51,51,51,51,49,98,99,99,99,99,89,114,52,43,43,43,71,43,43,43,44,45,45,
51,51,51,112,51,51,51,51,51,51,51,113,51,52,43,43,43,43,43,43,43,56,57,57,
51,51,51,51,51,37,51,51,51,51,61,51,41,64,43,43,43,43,43,43,43,56,57,57,
63,63,63,63,63,63,63,63,63,63,63,63,64,65,43,43,43,43,43,43,43,56,57,57,
43,43,43,43,43,43,43,43,66,43,43,43,43,43,43,43,43,43,43,43,44,60,118,57,
43,43,43,43,43,43,65,43,43,43,43,38,39,40,43,43,43,43,43,44,60,57,55,57,
43,43,43,43,43,43,43,43,43,43,43,50,51,52,43,43,43,43,43,56,57,57,55,57,
38,39,39,39,39,39,40,43,43,43,43,62,63,64,43,43,43,44,45,60,57,57,55,57,
50,51,51,51,51,51,53,40,43,43,43,43,43,43,43,43,43,56,57,57,57,57,57,57,
50,51,51,51,51,51,51,52,43,65,43,43,43,43,43,43,43,56,57,57,57,67,67,57,
50,51,51,51,51,51,41,64,43,43,43,43,43,43,43,43,43,56,57,57,57,67,67,57,
62,63,63,63,63,63,64,43,43,43,43,43,43,43,44,45,45,60,57,57,67,57,57,57,
43,43,43,43,43,43,43,43,43,43,43,43,43,43,56,57,57,57,67,67,67,57,91,91,
43,43,43,43,43,43,43,43,43,43,43,43,43,43,56,57,57,57,57,57,57,57,57,57,
43,43,43,43,43,43,43,43,43,43,43,43,43,43,68,69,69,69,69,69,69,69,69,69,
43,43,43,43,43,43,43,43,43,43,43,43,43,43,43,43,43,43,43,43,43,43,43,43,
39,39,39,39,39,39,39,39,39,39,39,39,39,39,39,39,39,39,39,39,39,39,39,39,
51,51,51,51,51,51,51,51,51,51,51,51,51,51,51,51,51,51,51,51,51,51,51,51,
51,51,51,51,51,51,51,51,51,51,51,97,97,97,51,51,51,51,51,51,51,51,51,51,
51,51,51,51,51,51,51,51,51,51,51,51,51,51,51,51,51,51,51,51,51,51,51,51
</data>
 </layer>
</map>
